food-drumstick-off-outline.svg

<svg fill="currentColor" viewBox="0 0 24 24"><path d="M22.1 21.5 2.4 1.7 1.1 3l7.4 7.4c-.2.3-.4.5-.6.8-1.2 1.2-1.2 2.9-.1 4l1 1c.5.5 1.3.8 2 .8s1.4-.3 2-.8c.3-.3.6-.5.9-.7l7.2 7.2zm-10.8-6.7c-.2.2-.4.2-.5.2s-.4 0-.6-.2l-1-1c-.2-.2-.2-.4-.2-.6s.1-.5.3-.7.4-.5.6-.7l2.2 2.2c-.2.3-.5.5-.8.8m.1-6.6L9.7 6.5c.4-1.4 1.3-2.6 2.7-3.5 1-.6 2.2-1 3.3-1 1.2 0 2.4.3 3.4 1 3.5 2.3 3.8 7 1.1 9.7-.8.8-1.7 1.3-2.7 1.6l-1.7-1.7c.1 0 .2-.1.4-.1 1-.1 1.9-.5 2.6-1.2.9-.9 1.4-2.2 1.2-3.5-.1-1.3-.8-2.4-2-3.2-.7-.4-1.5-.6-2.3-.6s-1.6.2-2.3.7c-1.2.7-1.9 1.9-2 3.2zm-2.6 9.2-2.5 2.4c.3.6.2 1.2-.3 1.7-.6.6-1.5.6-2.1 0-.3-.3-.4-.6-.4-1-.4 0-.7-.2-1-.4-.6-.6-.6-1.5 0-2.1.5-.5 1.1-.6 1.7-.3l2.5-2.4c.1.2.3.4.5.6l1 1c.1.2.3.4.6.5"/></svg>

<svg  viewBox="0 0 24 24" fill="currentColor"><path  d="M22.1 21.5L2.4 1.7L1.1 3L8.5 10.4C8.3 10.7 8.1 10.9 7.9 11.2C6.7 12.4 6.7 14.1 7.8 15.2L8.8 16.2C9.3 16.7 10.1 17 10.8 17C11.5 17 12.2 16.7 12.8 16.2C13.1 15.9 13.4 15.7 13.7 15.5L20.9 22.7L22.1 21.5M11.3 14.8C11.1 15 10.9 15 10.8 15S10.4 15 10.2 14.8L9.2 13.8C9 13.6 9 13.4 9 13.2C9 13 9.1 12.7 9.3 12.5C9.5 12.3 9.7 12 9.9 11.8L12.1 14C11.9 14.3 11.6 14.5 11.3 14.8M11.4 8.2L9.7 6.5C10.1 5.1 11 3.9 12.4 3C13.4 2.4 14.6 2 15.7 2C16.9 2 18.1 2.3 19.1 3C22.6 5.3 22.9 10 20.2 12.7C19.4 13.5 18.5 14 17.5 14.3L15.8 12.6C15.9 12.6 16 12.5 16.2 12.5C17.2 12.4 18.1 12 18.8 11.3C19.7 10.4 20.2 9.1 20 7.8C19.9 6.5 19.2 5.4 18 4.6C17.3 4.2 16.5 4 15.7 4C14.9 4 14.1 4.2 13.4 4.7C12.2 5.4 11.5 6.6 11.4 7.9V8.2M8.8 17.4L6.3 19.8C6.6 20.4 6.5 21 6 21.5C5.4 22.1 4.5 22.1 3.9 21.5C3.6 21.2 3.5 20.9 3.5 20.5C3.1 20.5 2.8 20.3 2.5 20.1C1.9 19.5 1.9 18.6 2.5 18C3 17.5 3.6 17.4 4.2 17.7L6.7 15.3C6.8 15.5 7 15.7 7.2 15.9L8.2 16.9C8.3 17.1 8.5 17.3 8.8 17.4"/></svg>
